X:1
T:Title
%%score 1 2
L:1/8
Q:1/4=90
M:6/8
K:D
V:1 treble nm="Violin, SOPRANO ALTO"
V:2 bass nm="Violin, TENOR BASS"
V:1
 z3 z2 [FA] | [Fd]>[Fd][Fd] [Fd]2 [FA] | [GB]3 [FA]2 [Dd] | [Ec][GB][FA] [EG]2 [GB] | %4
w: 1.~Men~|speak~ of~ "a~ church~ tri|um phant"~ As~|some thing~ on~ earth~ un|
 [FA]3- [FA]2 [FA] | [Fd]>[Fd][Fd] [Fd]2 [FA] | [GB]3 [Bd]2 [GB] | [FA][DF][Fd] [Ec]2 [Gc] | %8
w: known,~ * They~|think~ us~ be neath~ the~|ty rant~ Un|til~ we~ shall~ reach~ our~|
 [Fd]3- [Fd]2 [FA] | [Fd]>[Fd][Fd] [FA]2 [Ad] | [GB]3 [Bd]2 [GB] | [FA][DF]D [DA]2 [DF] | %12
w: home.~ * *||||
 [CE]3- [CE]2 [CA]/[CA]/ | [DF][DE]D [DF]2 [FA] | [GB]3 [Gd]2 [GB] | [FA][DF]D [DF]2 [CE] | D6 |] %17
w: |||||
V:2
 z3 z2 [D,A,] | [D,A,]>[D,A,][D,A,] [D,A,]2 [D,D] | [D,D]3 [D,D]2 [F,A,] | A,A,A, [A,,A,]2 [A,,C] | %4
 [D,D]3- [D,D]2 [D,A,] | [D,A,]>[D,A,][D,A,] [D,A,]2 [D,D] | [G,D]3 [G,D]2 [G,D] | %7
 [A,D]A,A, [A,,A,]2 [A,,A,] | [D,A,]3- [D,A,]2 [D,A,] | [D,A,]>[D,A,][D,A,] [D,D]2 [F,D] | %10
 [G,D]3 [G,D]2 [G,D] | [D,D][D,A,][D,F,] [D,F,]2 [D,A,] | [A,,A,]3- [A,,A,]2 [A,,A,]/[A,,A,]/ | %13
 [D,A,][D,G,][D,F,] [D,A,]2 [D,D] | [G,D]3 [G,B,]2 [G,D] | [A,D]A,[F,A,] [A,,A,]2 [A,,G,] | %16
 [D,F,]6 |] %17

